X:68
T:Salors (Salours) hornpipe. GS.068
T:Fisherâ€™s Hp,aka. GS.068
T:Egg Hp,aka. GS.068
M:2/2
L:1/8
Q:1/2=90
S:George Spencer m/s, Leeds,1831
R:.Hornpipe
O:England
A:Leeds
N:The title is given twice, in what may be different but similar
N:handwritings, 1st time â€˜Salorsâ€™ 2nd time â€˜Saloursâ€™ no repeats shown at
N:end of 1st section.. 1 â€“ this bar badly blotted and unclear but see bar
N:3 of this part.See GS.103 Morning Fair Hpâ€¦G.S.L. and what appears
N:to be 1881 not1831 written after double bar
N:on the stave â€“ but it could be a badly written 1831..Cherri.
H:1831
Z:vmp.Cherri Graebe
K:D major
â€œ_No time sig. in msâ€
A | dAFA GBAG | FDFD GBAG | FDFD GEGE | FDFD E2 (3ABc |!
dAFA GBAG | FDFD GBAG |FAcd fdec | d2d2d2 ||!
(Bd) | â€œ^1â€ ecAc efgf |fdAd fgaf | ecAc efgf | edcB A2A2 |!
BGDG BcdB | AFDF ABcA | BdcB AGFE | D2D2D2 |]

